build/img/logo_adm.svg

<svg width="42" height="42" viewBox="0 0 42 42" fill="none" xmlns="http://www.w3.org/2000/svg">
<circle cx="21" cy="21" r="20.5" fill="#6C2A81" stroke="white"/>
<path d="M27.3485 32.2034C30.8535 29.9915 33.0404 26.0966 33.0404 21.8153C33.0404 18.1136 31.4091 14.6966 28.6919 12.4085L22.1515 27.8356H19.8485L13.3081 12.4085C10.5909 14.6966 8.9596 18.1136 8.9596 21.8153C8.9596 26.0966 11.1465 29.9915 14.6515 32.2034L13.4747 35C8.88889 32.2898 6 27.3068 6 21.8153C6 16.4508 8.83333 10.8271 14.6616 8L21.0202 22.939L27.3384 8C33.1667 10.8271 36 16.4508 36 21.8153C36 27.3068 33.1111 32.2949 28.5253 35L27.3485 32.2034Z" fill="white"/>
</svg>

<svg width="42" height="42" fill="none" xmlns="http://www.w3.org/2000/svg"><circle cx="21" cy="21" r="20.5" fill="#6C2A81" stroke="#fff"/><path d="M27.349 32.203c3.505-2.212 5.691-6.106 5.691-10.388 0-3.701-1.63-7.118-4.348-9.407l-6.54 15.428h-2.303l-6.54-15.427a12.273 12.273 0 00-4.35 9.406c0 4.282 2.188 8.176 5.693 10.388L13.475 35C8.889 32.29 6 27.307 6 21.815 6 16.451 8.833 10.827 14.662 8l6.358 14.939L27.338 8C33.167 10.827 36 16.45 36 21.815c0 5.492-2.889 10.48-7.475 13.185l-1.176-2.797z" fill="#fff"/></svg>
